icons/1_Primary/Slack.svg

<svg width="1024" height="1024" fill="none" xmlns="http://www.w3.org/2000/svg"><g clip-path="url(#a)"><path d="M512 1024c282.77 0 512-229.23 512-512S794.77 0 512 0 0 229.23 0 512s229.23 512 512 512Z" fill="#8C72BD"/><path d="M363.56 579.52a53.779 53.779 0 1 1-53.76-53.76h53.76v53.76Zm27.11 0a53.778 53.778 0 0 1 53.78-53.78 53.778 53.778 0 0 1 53.78 53.78V714.2a53.78 53.78 0 0 1-107.56 0V579.52Zm53.78-216a53.784 53.784 0 0 1-49.688-33.204 53.775 53.775 0 0 1 11.667-58.611 53.778 53.778 0 0 1 82.747 8.171 53.78 53.78 0 0 1 9.054 29.884v53.76h-53.78Zm0 27.11a53.778 53.778 0 0 1 53.78 53.78 53.78 53.78 0 0 1-53.78 53.78H309.8a53.78 53.78 0 0 1 0-107.56h134.65Zm215.94 53.78a53.802 53.802 0 0 1 64.284-52.789 53.798 53.798 0 0 1 42.281 42.266 53.805 53.805 0 0 1-52.765 64.303h-53.8v-53.78Zm-27.05 0a53.787 53.787 0 0 1-53.79 53.79 53.787 53.787 0 0 1-53.79-53.79V309.8a53.787 53.787 0 0 1 53.79-53.79 53.787 53.787 0 0 1 53.79 53.79v134.61Zm-53.82 215.98a53.808 53.808 0 0 1 29.901 9.047 53.804 53.804 0 0 1 8.196 82.781 53.803 53.803 0 0 1-82.787-8.134 53.796 53.796 0 0 1-9.07-29.894v-53.8h53.76Zm0-27.05a53.787 53.787 0 0 1-53.79-53.79 53.787 53.787 0 0 1 53.79-53.79H714.2a53.787 53.787 0 0 1 53.79 53.79 53.787 53.787 0 0 1-53.79 53.79H579.52Z" fill="#fff"/></g><defs><clipPath id="a"><path fill="#fff" d="M0 0h1024v1024H0z"/></clipPath></defs></svg>

<svg width="1024" height="1024" viewBox="0 0 1024 1024" fill="none" xmlns="http://www.w3.org/2000/svg">
<g clip-path="url(#clip0_2_3483)">
<path d="M512 1024C794.77 1024 1024 794.77 1024 512C1024 229.23 794.77 0 512 0C229.23 0 0 229.23 0 512C0 794.77 229.23 1024 512 1024Z" fill="#8C72BD"/>
<path d="M363.56 579.52C363.564 590.158 360.413 600.559 354.505 609.406C348.597 618.253 340.198 625.149 330.37 629.222C320.542 633.295 309.727 634.362 299.293 632.288C288.859 630.213 279.274 625.091 271.752 617.568C264.229 610.046 259.107 600.461 257.032 590.027C254.958 579.593 256.025 568.778 260.098 558.95C264.171 549.122 271.067 540.723 279.914 534.815C288.761 528.907 299.162 525.756 309.8 525.76H363.56V579.52ZM390.67 579.52C390.67 565.257 396.336 551.577 406.422 541.492C416.508 531.406 430.187 525.74 444.45 525.74C458.713 525.74 472.393 531.406 482.478 541.492C492.564 551.577 498.23 565.257 498.23 579.52V714.2C498.23 728.463 492.564 742.142 482.478 752.228C472.393 762.314 458.713 767.98 444.45 767.98C430.187 767.98 416.508 762.314 406.422 752.228C396.336 742.142 390.67 728.463 390.67 714.2V579.52ZM444.45 363.52C433.812 363.52 423.414 360.365 414.569 354.455C405.725 348.545 398.832 340.144 394.762 330.316C390.692 320.488 389.628 309.674 391.705 299.241C393.782 288.808 398.906 279.225 406.429 271.705C413.952 264.184 423.537 259.064 433.97 256.991C444.404 254.918 455.218 255.986 465.045 260.059C474.871 264.133 483.269 271.029 489.176 279.876C495.083 288.723 498.234 299.122 498.23 309.76V363.52H444.45ZM444.45 390.63C458.713 390.63 472.393 396.296 482.478 406.382C492.564 416.467 498.23 430.147 498.23 444.41C498.23 458.673 492.564 472.352 482.478 482.438C472.393 492.524 458.713 498.19 444.45 498.19H309.8C295.537 498.19 281.858 492.524 271.772 482.438C261.686 472.352 256.02 458.673 256.02 444.41C256.02 430.147 261.686 416.467 271.772 406.382C281.858 396.296 295.537 390.63 309.8 390.63H444.45ZM660.39 444.41C660.386 433.769 663.538 423.365 669.447 414.515C675.356 405.665 683.757 398.766 693.588 394.691C703.418 390.616 714.236 389.548 724.674 391.621C735.111 393.695 744.699 398.817 752.225 406.341C759.751 413.864 764.877 423.45 766.955 433.887C769.032 444.323 767.968 455.142 763.897 464.974C759.825 474.806 752.93 483.209 744.082 489.122C735.234 495.034 724.831 498.19 714.19 498.19H660.39V444.41ZM633.34 444.41C633.34 458.676 627.673 472.358 617.585 482.445C607.498 492.533 593.816 498.2 579.55 498.2C565.284 498.2 551.602 492.533 541.515 482.445C531.427 472.358 525.76 458.676 525.76 444.41V309.8C525.76 295.534 531.427 281.852 541.515 271.765C551.602 261.677 565.284 256.01 579.55 256.01C593.816 256.01 607.498 261.677 617.585 271.765C627.673 281.852 633.34 295.534 633.34 309.8V444.41ZM579.52 660.39C590.162 660.382 600.568 663.531 609.421 669.437C618.273 675.344 625.175 683.744 629.253 693.574C633.331 703.404 634.402 714.222 632.331 724.661C630.26 735.1 625.139 744.69 617.617 752.218C610.094 759.746 600.508 764.874 590.071 766.953C579.633 769.032 568.814 767.969 558.981 763.899C549.148 759.828 540.743 752.932 534.83 744.084C528.916 735.236 525.76 724.832 525.76 714.19V660.39H579.52ZM579.52 633.34C565.254 633.34 551.572 627.673 541.485 617.585C531.397 607.498 525.73 593.816 525.73 579.55C525.73 565.284 531.397 551.602 541.485 541.515C551.572 531.427 565.254 525.76 579.52 525.76H714.2C728.466 525.76 742.148 531.427 752.235 541.515C762.323 551.602 767.99 565.284 767.99 579.55C767.99 593.816 762.323 607.498 752.235 617.585C742.148 627.673 728.466 633.34 714.2 633.34H579.52Z" fill="white"/>
</g>
<defs>
<clipPath id="clip0_2_3483">
<rect width="1024" height="1024" fill="white"/>
</clipPath>
</defs>
</svg>
